public/assets/call-gray.svg

<svg width="21" height="20" viewBox="0 0 21 20" fill="none" xmlns="http://www.w3.org/2000/svg">
<path d="M18.44 11.0001C18.22 11.0001 17.99 10.9301 17.77 10.8801C17.3245 10.7819 16.8867 10.6516 16.46 10.4901C15.9961 10.3213 15.4862 10.3301 15.0283 10.5147C14.5705 10.6993 14.1971 11.0467 13.98 11.4901L13.76 11.9401C12.786 11.3983 11.891 10.7253 11.1 9.94011C10.3148 9.14913 9.64183 8.25411 9.10001 7.28011L9.52001 7.00011C9.96338 6.78303 10.3108 6.40964 10.4954 5.9518C10.68 5.49396 10.6888 4.98402 10.52 4.52011C10.3612 4.09253 10.2309 3.65491 10.13 3.21011C10.08 2.99011 10.04 2.76011 10.01 2.53011C9.88857 1.82573 9.51963 1.18785 8.96963 0.731352C8.41963 0.274849 7.72471 0.0297211 7.01001 0.0401122H4.01001C3.57904 0.0360657 3.15226 0.124926 2.75872 0.300643C2.36518 0.47636 2.01412 0.734808 1.72944 1.05839C1.44476 1.38198 1.23314 1.76311 1.109 2.17583C0.984851 2.58855 0.951089 3.02317 1.01001 3.45011C1.54275 7.63949 3.45604 11.532 6.44766 14.5127C9.43928 17.4935 13.3387 19.3926 17.53 19.9101H17.91C18.6474 19.9112 19.3594 19.6406 19.91 19.1501C20.2264 18.8672 20.4791 18.5203 20.6515 18.1324C20.8239 17.7446 20.912 17.3245 20.91 16.9001V13.9001C20.8978 13.2055 20.6448 12.5367 20.1943 12.0078C19.7439 11.4789 19.1238 11.1227 18.44 11.0001V11.0001ZM18.94 17.0001C18.9398 17.1421 18.9094 17.2824 18.8508 17.4117C18.7922 17.5411 18.7067 17.6564 18.6 17.7501C18.4886 17.8471 18.358 17.9195 18.2167 17.9626C18.0754 18.0057 17.9266 18.0185 17.78 18.0001C14.0349 17.5199 10.5562 15.8066 7.89273 13.1304C5.22921 10.4542 3.53242 6.96745 3.07001 3.22011C3.05409 3.07363 3.06804 2.92544 3.11101 2.7845C3.15398 2.64356 3.22508 2.5128 3.32001 2.40011C3.41372 2.29344 3.52907 2.20795 3.65839 2.14933C3.78771 2.09071 3.92802 2.06029 4.07001 2.06011H7.07001C7.30256 2.05494 7.52963 2.13099 7.71215 2.27518C7.89467 2.41937 8.02122 2.62268 8.07001 2.85011C8.11001 3.12345 8.16001 3.39345 8.22001 3.66011C8.33553 4.18726 8.48927 4.70529 8.68001 5.21011L7.28001 5.86011C7.16031 5.91503 7.05263 5.99306 6.96317 6.08971C6.8737 6.18636 6.80421 6.29973 6.75868 6.42331C6.71315 6.54689 6.69248 6.67824 6.69786 6.80983C6.70323 6.94142 6.73455 7.07066 6.79001 7.19011C8.22921 10.2729 10.7073 12.7509 13.79 14.1901C14.0335 14.2901 14.3065 14.2901 14.55 14.1901C14.6747 14.1455 14.7893 14.0766 14.8872 13.9873C14.985 13.898 15.0642 13.7902 15.12 13.6701L15.74 12.2701C16.257 12.455 16.7846 12.6086 17.32 12.7301C17.5867 12.7901 17.8567 12.8401 18.13 12.8801C18.3574 12.9289 18.5607 13.0554 18.7049 13.238C18.8491 13.4205 18.9252 13.6476 18.92 13.8801L18.94 17.0001Z" fill="#6B7280"/>
</svg>

<svg width="21" height="20" fill="none" xmlns="http://www.w3.org/2000/svg"><path d="M18.44 11c-.22 0-.45-.07-.67-.12a9.443 9.443 0 0 1-1.31-.39 2 2 0 0 0-2.48 1l-.22.45a12.18 12.18 0 0 1-2.66-2 12.18 12.18 0 0 1-2-2.66L9.52 7a2 2 0 0 0 1-2.48 10.32 10.32 0 0 1-.39-1.31c-.05-.22-.09-.45-.12-.68a3 3 0 0 0-3-2.49h-3a3 3 0 0 0-3 3.41 19 19 0 0 0 16.52 16.46h.38a3 3 0 0 0 2.741-1.778c.173-.387.261-.808.259-1.232v-3a3 3 0 0 0-2.47-2.9Zm.5 6a1 1 0 0 1-.723.963c-.142.043-.29.055-.437.037A17 17 0 0 1 3.07 3.22a1.09 1.09 0 0 1 .25-.82 1 1 0 0 1 .75-.34h3a1 1 0 0 1 1 .79c.04.273.09.543.15.81.116.527.27 1.045.46 1.55l-1.4.65a1 1 0 0 0-.49 1.33 14.49 14.49 0 0 0 7 7 1 1 0 0 0 .76 0 1 1 0 0 0 .57-.52l.62-1.4c.517.185 1.045.339 1.58.46.267.06.537.11.81.15a1 1 0 0 1 .79 1l.02 3.12Z" fill="#6B7280"/></svg>
